!!!COM: Alexander P. Borodin
!!!OTL: String Trio in G minor
!!!system-decoration: (s1,s2,s3)
**kern	**kern	**kern	**dynam	**kern	**kern	**kern	**dynam	**kern	**kern	**kern	**dynam
*part3	*part3	*part3	*part3	*part2	*part2	*part2	*part2	*part1	*part1	*part1	*part1
*staff9	*staff8	*staff7	*	*staff6	*staff5	*staff4	*	*staff3	*staff2	*staff1	*
*I"Cello	*	*	*	*I"Violine 2	*	*	*	*I"Violine 1	*	*	*
*clefF4	*	*clefG2	*	*clefG2	*
*k[b-e-]	*	*k[b-e-]	*	*k[b-e-]	*
*M2/4	*	*M2/4	*	*M2/4	*
!	!	!	!	!LO:TX:a:i:t=Andantino	!
2r	.	2r	.	4dd~	p
.	.	.	.	4dd~	.
=2	=2	=2	=2	=2	=2
2r	.	2r	.	(>8ddL	.
.	.	.	.	8bb-y	.
.	.	.	.	8aa	.
.	.	.	.	8ggJ)	.
=3	=3	=3	=3	=3	=3
.	.	.	 p 	(<8qgg	.
2r	.	4d~	.	(>8ff#yL)	.
.	.	.	.	8een	.
.	.	4d~	.	8ff#y)	.
.	.	.	.	8ddJ	.
=4	=4	=4	=4	=4	=4
2r	.	(<8dL	.	(>4gg	.
.	.	8b-y	.	.	.
.	.	8a	.	4dd)	.
.	.	8gJ)	.	.	.
=5	=5	=5	=5	=5	=5
.	p	(<8qg	.	.	.
4D	.	(<8f#yL)	.	(>4.cc	.
.	.	8en	.	.	.
4D	.	8f#y	.	.	.
.	.	8dJ)	.	16ddL	.
.	.	.	.	16ccJ)	.
=6	=6	=6	=6	=6	=6
(>8DL	.	(<4g	.	(>4b-y	.
8B-y	.	.	.	.	.
8A	.	4d)	.	4dd)	.
8GJ)	.	.	.	.	.
!!LO:LB
=7	=7	=7	=7	=7	=7
(<8qG	.	.	.	.	<
(>8F#yL)	.	(<4.c	.	(<4.d 4.a	.
8En	.	.	.	.	.
8F#y	.	.	.	.	.
8DJ)	.	16dL	.	16b-yL	.
.	.	16cJ)	.	16aJ)	.
=8	=8	=8	=8	=8	=8
(>4G	.	8B-yL	.	(<8gL	[
.	.	(<8B-y	.	8d	.
4D)	.	8A	.	8c	.
.	.	8GJ)	.	8B-yJ)	.
=9	=9	=9	=9	=9	=9
(<4.C	.	4G	<	(>8AL	.
.	.	.	.	8e-yJ)	.
.	.	(<4A	>	(<4d	.
16DL	.	.	.	.	.
16CJ)	.	.	]	.	.
=10	=10	=10	=10	=10	=10
8BB-y	.	8G)	.	8d)	.
8r	.	8r	.	8r	.
4r	.	4r	.	4r	.
=11	=11	=11	=11	=11	=11
!	!	!	!	!LO:TX:a:i:t=ral. ad lib.	!
(<2C	p	(>(<2A 2e-y	p	4r	.
.	.	.	.	(>(>4gg	.
=12	=12	=12	=12	=12	=12
2C)	.	2A)) 2e-y	.	8.ggL)	.
.	.	.	.	16ee-yJ)	.
.	.	.	.	(>16ddL	.
.	.	.	.	16cc	.
.	.	.	.	16b-y	.
.	.	.	.	16aJ)	.
!!LO:LB
=13	=13	=13	=13	=13	=13
(>2D	.	(>(<2B-y 2d	.	(>16ddL	.
.	.	.	.	16bb-y	.
.	.	.	.	16aa	.
.	.	.	.	16ggJ)	.
.	.	.	.	(>16ff#yL	.
.	.	.	.	16aaJ	.
.	.	.	.	(>8qaa	.
.	.	.	.	16ggL))	.
.	.	.	.	16ee-yJ	.
=14	=14	=14	=14	=14	=14
(>2D)	.	(>(<2d))	.	(>8ddL	.
.	.	.	.	16b-y	.
.	.	.	.	16aJ)	.
.	.	.	.	(<8g	.
.	.	.	.	(<16qaL	.
.	.	.	.	16qgJ	.
.	.	.	.	16fL))	.
.	.	.	.	16e-yJ	.
=15	=15	=15	=15	=15	=15
4D)	.	4d))	.	(<4d	.
4D 4c	.	4A 4d	.	4f#y)	.
=16	=16	=16	=16	=16	=16
!	!	!	!	!LO:TX:a:iB:t=a tempo	!
8G	.	8B-y 8d	.	8g	pp
8r	.	8r	.	(>8bb-yL	.
4r	.	4r	.	8aa	.
.	.	.	.	8ggJ)	.
=17	=17	=17	=17	=17	=17
2r	.	8r	pp	(>2dd	.
.	.	8b-yL	.	.	.
.	.	8a	.	.	.
.	.	(>8gJ	.	.	.
=18	=18	=18	=18	=18	=18
8r	pp	2d)	.	2dd)	.
(>8B-yL	.	.	.	.	.
8A	.	.	.	.	.
8GJ)	.	.	.	.	.
!!LO:LB
=19	=19	=19	=19	=19	=19
!	!	!	!	!LO:TX:a:iB:t=ral.	!
8DL	.	(<2d	.	2dd	.
(<8BB-y	.	.	.	.	.
8AA	.	.	.	.	.
8GGJ)	.	.	.	.	.
=20	=20	=20	=20	=20	=20
4.G;	.	4.d;)	.	4.b-y; 4.gg;	.
8r	.	8r	.	8r	.
=21	=21	=21	=21	=21	=21
!	!	!	!	!LO:TX:a:i:t=il tema cantabile	!
(>4F#y	p	(<8cL	p	4dd~	p
.	.	8d	.	.	.
4D)	.	8a	.	4dd~	.
.	.	8dJ)	.	.	.
=22	=22	=22	=22	=22	=22
(>4G	.	(<8B-yL	.	(>8ddL	.
.	.	8d	.	8bb-y	.
4D)	.	8g	.	8aa	.
.	.	8dJ)	.	8ggJ)	.
=23	=23	=23	=23	=23	=23
.	.	.	.	(>8qgg	.
(>4A	.	(<8cL	.	(>8ff#yL)	.
.	.	8d	.	8een	.
4D)	.	8f#y	.	8ff#y	.
.	.	8dJ)	.	8ddJ)	.
=24	=24	=24	=24	=24	=24
(>4G	.	(<8B-yL	.	(>4gg	.
.	.	8d	.	.	.
4D)	.	8g	.	4dd)	.
.	.	8dJ)	.	.	.
=25	=25	=25	=25	=25	=25
(>4F#y	.	(<8cL	.	4dd~	.
.	.	8d	.	.	.
4D)	.	8a	.	4dd~	.
.	.	8dJ)	.	.	.
=26	=26	=26	=26	=26	=26
(>4G	.	(<8B-yL	.	(>8ddL	.
.	.	8d	.	8bb-y	.
4D)	.	8g	.	8aa	.
.	.	8dJ)	.	8ggJ)	.
!!LO:LB
=27	=27	=27	=27	=27	=27
.	.	.	.	(>8qgg	.
(>4A	.	(<8cL	.	(>8ff#yL)	.
.	.	8d	.	8een	.
4D	.	8f#y	.	8ff#y	.
.	.	8dJ)	.	8ddJ)	.
=28	=28	=28	=28	=28	=28
4G)	.	(<8B-yL	.	4gg	.
.	.	8d	.	.	.
4r	.	8g	.	4r	.
.	.	8dJ)	.	.	.
=29	=29	=29	=29	=29	=29
!LO:TX:i:t=cresc.	!	!LO:TX:i:t=cresc.	!	!LO:TX:i:t=cresc.	!
2B-y	.	(<8dL	.	4bb-y	.
.	.	8f	.	.	.
.	.	8b-y	.	4bb-y	.
.	.	8fJ)	.	.	.
=30	=30	=30	=30	=30	=30
2F	.	(<8e-yL	.	(>8cccL	.
.	.	8f	.	8bb-y)	.
.	.	8cc	.	(>8aa	.
.	.	8fJ)	.	8ggJ)	.
=31	=31	=31	=31	=31	=31
(>4A	.	(<8e-yL	.	(>8ffL	.
.	.	8f	.	32gg	.
.	.	.	.	32ff	.
.	.	.	.	32een	.
.	.	.	.	32ffJ)	.
4F	.	8a	.	(>8fffL	.
.	.	8fJ)	.	8eee-yJ)	.
=32	=32	=32	=32	=32	=32
!	!	!	!	!LO:TX:a:iB:t=ral.	!
8B-y)	>	8d 8b-y	>	(>8.dddL	>
8r	.	8r	.	.	.
.	.	.	.	32eee-y	.
.	.	.	.	32dddJ)	.
8C	.	8e-y 8a	.	(>8.cccL	.
8r	.	8r	.	.	.
.	.	.	.	32ddd	.
.	]	.	]	32cccJ)	]
!!LO:LB
=33	=33	=33	=33	=33	=33
8D	.	8B-y 8g	.	(>8.bb-yL	.
8r	.	8r	.	.	.
.	.	.	.	32ccc	.
.	.	.	.	32bb-y)	.
8D	.	8c 8f#y	.	(>8aa	.
8r	.	8r	.	8dddJ)	.
=34	=34	=34	=34	=34	=34
!	!	!	!	!LO:TX:a:iB:t=a tempo	!
8G	.	8B-y 8g	.	4gg	.
8r	.	8r	.	.	.
(>4g	.	4r	.	4r	.
=35	=35	=35	=35	=35	=35
2g)	.	8r	.	8r	.
.	.	(>8ccL	.	(>8ee-yL	.
.	.	8b-y	.	8dd	.
.	.	8aJ)	.	8ccJ)	.
=36	=36	=36	=36	=36	=36
(>8dL	.	(<8gL	.	(>8b-yL	.
16e-y	.	16g'	.	16cc	.
16cJ)	.	16g'J)	.	16a)	.
8B-y	.	8g	.	8ddJ	.
8r	.	8r	.	8r	.
=37	=37	=37	=37	=37	=37
2r	.	2r	.	2g;	.
=38	=38	=38	=38	=38	=38
!LO:TX:iB:t=p	!	!	!	!LO:TX:a:iB:t=a tempo	!
!LO:TX:i:t=il tema cantabile	!	!	!	!	!
(<4DD~	.	(<4c	p	(<8dL	p
.	.	.	.	8e-y	.
4DD~)	.	8B-yL	.	8d	.
.	.	8AJ)	.	8cJ)	.
!!LO:LB
=39	=39	=39	=39	=39	=39
(<8DDL	.	(<8GL	.	(<8B-yL	.
8BB-y	.	8d	.	8g	.
8AA	.	8c	.	8f	.
8GGJ)	.	8B-yJ)	.	8e-yJ)	.
=40	=40	=40	=40	=40	=40
(<8qGG	.	.	.	.	.
(<8FF#yL)	.	8cL	.	(<8dL	.
8EEn	.	(<8c	.	8a	.
8FF#y	.	8d	.	8b-y	.
8DDJ)	.	8cJ)	.	8aJ)	.
=41	=41	=41	=41	=41	=41
(<4GG	.	8B-yL	.	(>8gL	.
.	.	(<8b-y	.	8dd	.
4DD)	.	8a	.	8cc	.
.	.	8gJ)	.	8b-yJ)	.
=42	=42	=42	=42	=42	=42
(<4DD~	.	(<8cL	.	(>8aL	.
.	.	8e-y	.	8cc	.
4DD~)	.	8d	.	8b-y	.
.	.	8cJ)	.	8aJ)	.
=43	=43	=43	=43	=43	=43
(<8DDL	.	(<8B-yL	.	(<8gL	.
8BB-y	.	8d	.	8dJ)	.
8AA	.	8c	.	4d	.
8GGJ)	.	8B-yJ)	.	.	.
!!LO:LB
=44	=44	=44	=44	=44	=44
(<8qGG	.	.	.	.	.
(<8FF#yL)	.	(<8AL	.	(<4.d	.
8EEn	.	8c	.	.	.
8FF#y	.	8B-y	.	.	.
8DDJ)	.	8cJ)	.	8c)	.
=45	=45	=45	=45	=45	=45
4GG	.	(<8GL	.	(<8B-yL	.
.	.	8B-y	.	8d	.
4r	.	8d	.	8g	.
.	.	8gJ)	.	8b-yJ)	.
=46	=46	=46	=46	=46	=46
4BB-y	.	(<8b-yL	.	(>8ddL	.
.	.	8a	.	8ff	.
4BB-y	.	8g	.	8ee-y	.
.	.	8fJ)	.	8ddJ)	.
=47	=47	=47	=47	=47	=47
(<8CL	<	4g	<	(>8ee-yL	<
8BB-y)	.	.	.	8dd	.
(<8AA	.	(<8gL	.	8cc	.
8GGJ)	[	8b-yJ)	[	8eenJ)	[
=48	=48	=48	=48	=48	=48
(<8FFL	>	(<8aL	>	(>8ffL	>
32GG	.	8gJ)	.	8ee-y	.
32FF	.	.	.	.	.
32EEn	.	.	.	.	.
32FFJ)	.	.	.	.	.
(>8FL	.	4f	.	8dd	.
8E-yJ)	]	.	]	8ccJ)	]
!!LO:LB
=49	=49	=49	=49	=49	=49
!	!	!	!	!LO:TX:a:iB:t=ral.	!
(>8.DL	p	4f	p	(>8b-yL	p
.	.	.	.	8ffJ)	.
32E-y	.	.	.	.	.
32D)	.	.	.	.	.
(>8.C	.	8r	.	4ee-y	.
.	.	(<8g	.	.	.
32D	.	.	.	.	.
32CJ)	.	.	.	.	.
=50	=50	=50	=50	=50	=50
(<8.BB-yL	.	8g)	.	(>4dd	.
.	.	(<4g	.	.	.
32C	.	.	.	.	.
32BB-y)	.	.	.	.	.
(<8AA	.	.	.	4cc	.
8DJ)	.	8f#y)	.	.	.
=51	=51	=51	=51	=51	=51
4GG	.	(>4g	.	4b-y)	.
4r	.	4gg)	.	4r	.
=52	=52	=52	=52	=52	=52
8r	.	(>2gg	.	8r	.
!LO:TX:a:i:t=pizz.	!	!	!	!LO:TX:i:t=pizz.	!
8cL	.	.	.	8GL 8e-y	.
8B-y	.	.	.	8G 8d	.
8AJ	.	.	.	8cJ	.
=53	=53	=53	=53	=53	=53
8GL	.	4gg)	.	8B-yL	.
16E-y	.	.	.	16c	.
16CJ	.	.	.	16AJ	.
4BB-y	.	4r	.	4G 4d	.
=54	=54	=54	=54	=54	=54
!LO:TX:a:i:t=arco	!	!	!	!	!
2G;	.	2r	.	2r	.
=55	=55	=55	=55	=55	=55
!	!	!	!	!LO:TX:a:iB:t=G.P.	!
2r	.	2r	.	2r	.
!!LO:LB
=56	=56	=56	=56	=56	=56
!	!	!	!	!LO:TX:a:iB:t=Risoluto e più vivo	!
!	!	!	!	!LO:TX:a:i:t=arco	!
8DDL	f	8dL 8dd	f	8cL	f
8D	.	8c 8f#y	.	(<16d	.
.	.	.	.	16f#yJ)	.
8c	.	8dJ 8a	.	16aL	.
.	.	.	.	16dd	.
8DJ	.	8r	.	16ff#y	.
.	.	.	.	16aaJ	.
=57	=57	=57	=57	=57	=57
8DDL	.	8r	.	(>16dddL	.
.	.	.	.	16dd)	.
8D	.	8B-yL 8d	.	(>16dd'	.
.	.	.	.	16bb-y'J)	.
8d	.	8B-yJ 8g	.	(>16aaL	.
.	.	.	.	16cc)	.
8DJ	.	8r	.	(>16b-y'	.
.	.	.	.	16gg'J)	.
=58	=58	=58	=58	=58	=58
8DDL	.	8r	.	(>16ff#yL	.
.	.	.	.	16a)	.
8D	.	8cL 8e-y	.	(>16g'	.
.	.	.	.	16ee-y'J)	.
8d	.	8cJ 8f#y	.	(<16ddL	.
.	.	.	.	16f#y)	.
8DJ	.	8r	.	(<16e-y'	.
.	.	.	.	16cc'J)	.
=59	=59	=59	=59	=59	=59
8GGL	.	8g	.	8dL 8b-y	.
8D	.	8r	.	(<16d	.
.	.	.	.	16gJ)	.
8G 8B-y	.	4r	.	16b-yL	.
.	.	.	.	16dd	.
8GJ	.	.	.	16gg	.
.	.	.	.	16bb-yJ	.
!!LO:LB
=60	=60	=60	=60	=60	=60
8DDL	.	8cL	.	(>4.ddd	.
8D 8A	.	(<16d	.	.	.
.	.	16f#yJ)	.	.	.
8F#y 8c	.	16aL	.	.	.
.	.	16dd	.	.	.
8AJ	.	16ff#y	.	8ccc)	.
.	.	16aaJ	.	.	.
=61	=61	=61	=61	=61	=61
8GGL 8G	.	(>16dddL	.	(>4bb-y'	.
.	.	16dd)	.	.	.
8D	.	(>16dd'	.	.	.
.	.	16bb-y'J)	.	.	.
8G 8B-y	.	(>16aaL	.	4ddd')	.
.	.	16cc)	.	.	.
8DJ	.	(>16b-y'	.	.	.
.	.	16gg'J)	.	.	.
=62	=62	=62	=62	=62	=62
8DDL	.	(>16ff#yL	.	(>8aaL	.
.	.	16a)	.	.	.
8D	.	(>16g'	.	8cccJ)	.
.	.	16ee-y'J)	.	.	.
.	.	.	.	(>16qbb-yL	.
.	.	.	.	16qcccJ	.
8d	.	(>16ddL	.	(>8bb-yL)	.
.	.	16f#y)	.	.	.
8DJ	.	(>16e-y'	.	8aaJ)	.
.	.	16cc'J)	.	.	.
=63	=63	=63	=63	=63	=63
8GG 8G	.	8b-yL	.	8gg	.
8r	.	(>16d	.	8r	.
.	.	16gJ)	.	.	.
4r	.	16b-yL	.	4r	.
.	.	16dd	.	.	.
.	.	16gg	.	.	.
.	.	16bb-yJ	.	.	.
!!LO:LB
=64	=64	=64	=64	=64	=64
8BB-yL	.	4ddd	.	8B-yL	.
8F	.	.	.	(<16d	.
.	.	.	.	16fJ)	.
8d	.	4ddd	.	16b-yL	.
.	.	.	.	16dd	.
8FJ	.	.	.	16ff	.
.	.	.	.	16bb-yJ	.
=65	=65	=65	=65	=65	=65
8FFL	.	(>4.fff'	.	(>16cccL	.
.	.	.	.	16ee-y)	.
8F	.	.	.	(>16dd'	.
.	.	.	.	16bb-y'J)	.
8c	.	.	.	(>16aaL	.
.	.	.	.	16cc)	.
8FJ	.	8fff')	.	(>16b-y'	.
.	.	.	.	16gg'J)	.
=66	=66	=66	=66	=66	=66
8AAL	.	(>4.fff'	.	16ffL	.
.	.	.	.	(>16a	.
8F	.	.	.	16cc)	.
.	.	.	.	16ffJ	.
8c	.	.	.	16aaL	.
.	.	.	.	(>16ccc	.
8FJ	.	8aaa')	.	16fff)	.
.	.	.	.	16eee-yJ	.
=67	=67	=67	=67	=67	=67
!	!	!	!	!LO:TX:a:iB:t=ral.	!
8BB-yL	.	8bbb-y	.	16ddd'L	>
.	.	.	.	(>16ff	.
8F 8d	.	8r	.	16gg)	.
.	.	.	.	16ffJ	.
8C	>	8e-y 8cc	>	16ee-y'L	.
.	.	.	.	(>16ccc	.
8GJ 8e-y	.	8r	.	16ddd	.
.	]	.	]	16cccJ)	]
!!LO:LB
=68	=68	=68	=68	=68	=68
8DL	>	8d 8b-y	>	16bb-y'L	>
.	.	.	.	(>16dd	.
8B-y 8g	.	8r	.	16ee-y	.
.	.	.	.	16ddJ)	.
8DD	.	8c 8a	.	16cc'L	.
.	.	.	.	(>16aa	.
8AJ 8f#y	.	8r	.	16bb-y	.
.	]	.	]	16aaJ)	]
=69	=69	=69	=69	=69	=69
8GG	p	8B-y 8g	p	(>16aaL	p
.	.	.	.	16gg)	.
8r	.	8r	.	(>16dd'	.
.	.	.	.	16b-y'J)	.
4r	.	4r	.	(<16aL	.
.	.	.	.	16g)	.
.	.	.	.	(<16d'	.
.	.	.	.	16B-y'J)	.
=70	=70	=70	=70	=70	=70
4r	p	2r	.	8G	.
.	.	.	.	8r	.
!LO:TX:a:i:t=pizz.	!	!	!	!	!
4GG 4G	.	.	.	4r	.
=71:|!	=71:|!	=71:|!	=71:|!	=71:|!	=71:|!
!	!	!	!	!LO:TX:a:iB:t=a tempo	!
!	!	!LO:TX:a:i:t=pizz.	!	!LO:TX:a:i:t=pizz.	!
8eL	p	8cc#yL 8bb-y	p	8ggL	p
!	!	!	!	!LO:TX:i:t=scherzando	!
8D	.	8gg	.	8eee	.
8e-y	.	8gg	.	8eee-y	.
8DJ	.	8ccnJ 8aa	.	8ggJ	.
!!LO:LB
=72	=72	=72	=72	=72	=72
8dL	.	8bL 8gg	.	8dddL	.
8D	.	8dd 8bb	.	8ggg	.
8g	.	8cc 8gg	.	8eeen	.
8DJ	.	8ccJ 8gg	.	8cccJ	.
=73	=73	=73	=73	=73	=73
8eL	.	8ccL 8gg	.	8cccL	.
8D	.	8b 8gg	.	8bb	.
8e-y	.	8f#y 8cc	.	8aa	.
8DJ	.	8f#yJ 8a	.	8ee-yJ	.
=74	=74	=74	=74	=74	=74
8dL	.	8gL 8b	.	8ddL	.
8D	.	8g 8b	.	8gg	.
8e	.	8g	.	8cc	.
8DJ 8d	.	8gJ	.	8bJ	.
=75	=75	=75	=75	=75	=75
!	!	!LO:TX:a:i:t=arco	!	!	!
8gL	<	(<4e	<	8c#yL 8b-y	<
8D	.	.	.	8b-y 8ee	.
8g	.	4e-y	.	8g 8ee-y	.
8DJ	.	.	.	8cnJ 8a	.
=76	=76	=76	=76	=76	=76
8BL	[	4d	[	8gL 8dd	[
8D	.	.	.	8b 8gg	.
8g	.	4c#y)	.	8a 8ee	.
8DJ	.	.	.	8c#yJ 8a	.
=77	=77	=77	=77	=77	=77
8e-yL	>	(<4cn	>	8cnL 8a	.
8D	.	.	.	8a 8ee-y	.
8a	.	8dL	.	8f#y 8dd	.
8DJ	]	8cJ)	]	8dJ 8a	.
=78	=78	=78	=78	=78	=78
8GL	.	4B	.	4g	.
8GGJ	.	.	.	.	.
!	!	!LO:TX:a:i:t=pizz.	!	!	!
4r	.	8GL	.	8r	.
.	.	8gJ	.	8gg	.
=79	=79	=79	=79	=79	=79
8FnL	<	8fnL 8a	<	8bL	<
8A	.	8f 8b	.	8dd	.
8E	.	8e 8cc	.	8ee	.
8AJ	[	8eJ 8a	[	8ccJ	[
=80	=80	=80	=80	=80	=80
8DL	>	8fnL 8b	>	8aL 8ffn	>
8A	.	8a	.	8a	.
8C	.	8e 8cc	.	8a 8ee	.
8AJ	]	8aJ	]	8aJ	]
=81	=81	=81	=81	=81	=81
8DL	.	8fnL 8a	.	8dL 8b	.
8Fn	.	8a	.	8fn 8dd	.
8E	.	8e 8a	.	8cc 8ee	.
8EJ	.	8dJ 8g#y	.	8bJ 8ee	.
=82	=82	=82	=82	=82	=82
8AL	.	8cL	.	8aL 8ee	.
8c	.	8a	.	8f#y 8ee	.
8B	.	8g	.	8dd	.
8eJ	.	8gJ	.	8ccJ	.
!!LO:LB
=83	=83	=83	=83	=83	=83
8dL	.	8gL	.	8bL	.
8e	.	8b	.	8gg	.
8c	.	8g	.	8ee	.
8BJ	.	8gJ	.	8ddJ	.
=84	=84	=84	=84	=84	=84
8AL	.	8gL	.	8ccL	.
8B	.	8g	.	8b	.
8c	.	8g	.	8a	.
8c#yJ	.	8gJ 8a	.	8eeJ	.
=85	=85	=85	=85	=85	=85
8dL	.	8gL 8b	.	8ggL	.
8D	.	8B 8g	.	8dd	.
8F#y	.	8a	.	8cc	.
8DJ	.	8cJ	.	8aJ	.
=86	=86	=86	=86	=86	=86
8G	.	8BL 8d	.	8g	.
8r	.	8GJ	.	8r	.
8GG	.	8r	.	4r	.
8r	.	8g	.	.	.
=87	=87	=87	=87	=87	=87
2r	.	2r	.	8gg	.
.	.	.	.	8r	.
.	.	.	.	4r	.
=88	=88	=88	=88	=88	=88
!	!	!LO:TX:a:i:t=arco	!	!LO:TX:a:i:t=arco	!
2r	.	4dd~	p	(>24dddL	p
.	.	.	.	24ccc	.
.	.	.	.	24bb-y	.
.	.	.	.	24aa	.
.	.	.	.	24bb-y	.
.	.	.	.	24cccJ	.
!	!	!	!	!LO:TX:i:t=cresc. poco	!
.	.	4dd~	.	24bb-yL	.
.	.	.	.	24aa	.
.	.	.	.	24gg	.
.	.	.	.	24ff#y	.
.	.	.	.	24gg	.
.	.	.	.	24aaJ)	.
!!LO:LB
=89	=89	=89	=89	=89	=89
!	!	!	!	!LO:TX:i:t=a poco	!
2r	.	(>8dd	.	(>24ggL	.
.	.	.	.	24ffn	.
.	.	.	.	24ee-y	.
.	.	8bb-y	.	24dd	.
.	.	.	.	24ee-y	.
.	.	.	.	24ddJ	.
.	.	8aa	.	24ccL	.
.	.	.	.	24dd	.
.	.	.	.	24cc	.
.	.	8gg)	.	24b-y	.
.	.	.	.	24cc	.
.	.	.	.	24b-yJ)	.
=90	=90	=90	=90	=90	=90
.	.	(>8qgg	.	.	.
2r	.	(>8ff#y)	.	(>24aL	.
.	.	.	.	24g#y	.
.	.	.	.	24a	.
.	.	8een	.	24cc	.
.	.	.	.	24b-y	.
.	.	.	.	24aJ	.
.	.	8ff#y	.	24ddL	.
.	.	.	.	24cc	.
.	.	.	.	24b-y	.
.	.	8dd)	.	24a	.
.	.	.	.	24b-y	.
.	.	.	.	24ccJ)	.
=91	=91	=91	=91	=91	=91
2r	.	(>24ggL	.	(<24b-yL	.
.	.	24ffn	.	24a	.
.	.	24ee-y	.	24gn	.
.	.	24dd	.	24f#y	.
.	.	24ee-y	.	24g	.
.	.	24ddJ	.	24f#yJ	.
.	.	24ee-yL	.	24gL	.
.	.	24dd	.	24fn	.
.	.	24cc	.	24e-y	.
.	.	24b-y	.	24d	.
.	.	24cc	.	24e-y	.
.	.	24b-yJ)	.	24dJ)	.
!!LO:LB
=92	=92	=92	=92	=92	=92
!LO:TX:a:i:t=arco	!	!	!	!	!
4D~	p	(<24ddL	.	(<8c	.
.	.	24cc	.	.	.
.	.	24b-y	.	.	.
.	.	24a	.	(>8ddL)	.
.	.	24b-y	.	.	.
.	.	24ccJ	.	.	.
4D~	.	24b-yL	.	8ddd	.
.	.	24a	.	.	.
.	.	24g	.	.	.
.	.	24f#y	.	8cccJ)	.
.	.	24g	.	.	.
.	.	24aJ)	.	.	.
=93	=93	=93	=93	=93	=93
(>8D	.	(<24gL	.	(>8bb-yL	.
.	.	24fn	.	.	.
.	.	24e-y	.	.	.
8B-y	.	24d	.	8ggJ)	.
.	.	24e-y	.	.	.
.	.	24dJ	.	.	.
8A	.	24cL	.	(>4ddd	.
.	.	24d	.	.	.
.	.	24c	.	.	.
8G)	.	24B-y	.	.	.
.	.	24c	.	.	.
.	.	24B-yJ)	.	.	.
=94	=94	=94	=94	=94	=94
(<8qG	.	.	.	.	.
(>8F#y)	.	(<24AL	.	8.dddL)	.
.	.	24G#y	.	.	.
.	.	24A	.	.	.
8En	.	24c	.	.	.
.	.	24B-y	.	.	.
.	.	.	.	(>32ccc	.
.	.	24AJ	.	.	.
.	.	.	.	32bb-yJ)	.
8F#y	.	24dL	.	8.aaL	.
.	.	24c	.	.	.
.	.	24B-y	.	.	.
8D)	.	24A	.	.	.
.	.	24B-y	.	.	.
.	.	.	.	(>32bb-y	.
.	.	24cJ)	.	.	.
.	.	.	.	32aaJ)	.
!!LO:LB
=95	=95	=95	=95	=95	=95
(<24GL	f	8B-yL	<	4gg	.
24Fn	.	.	.	.	.
24E-y	.	.	.	.	.
24D	.	(<8dJ	.	.	.
24E-y	.	.	.	.	.
24DJ	.	.	.	.	.
24CL	.	4dd)	.	4r	.
24BB-y	.	.	.	.	.
24AA	.	.	.	.	.
24GG	.	.	.	.	.
24FF	.	.	.	.	.
24EE-yJ)	.	.	[	.	.
=96	=96	=96	=96	=96	=96
(<24DDL	.	4d 4ff	f	4b-y 4bb-y	f
24FF	.	.	.	.	.
24GG	.	.	.	.	.
24AA	.	.	.	.	.
24BB-y	.	.	.	.	.
24CJ	.	.	.	.	.
24DL	.	4d 4ff	.	4b-y 4bb-y	.
24E-y	.	.	.	.	.
24F	.	.	.	.	.
24G	.	.	.	.	.
24A	.	.	.	.	.
24B-yJ)	.	.	.	.	.
=97	=97	=97	=97	=97	=97
(>24AL	.	4e-y 4ee-y	.	(>8ccL 8ccc	.
24G	.	.	.	.	.
24F	.	.	.	.	.
24G	.	.	.	8b-y) 8bb-y	.
24F	.	.	.	.	.
24GJ	.	.	.	.	.
24AL	.	4e-y 4ee-y	.	(>8a 8aa	.
24G	.	.	.	.	.
24A	.	.	.	.	.
24B-y	.	.	.	8gJ) 8gg	.
24A	.	.	.	.	.
24B-yJ)	.	.	.	.	.
!!LO:LB
=98	=98	=98	=98	=98	=98
(>24cL	.	4e-y 4a	.	8fL 8ff	.
24B-y	.	.	.	.	.
24A	.	.	.	.	.
24G	.	.	.	8ffJ	.
24A	.	.	.	.	.
24B-yJ	.	.	.	.	.
.	.	.	.	(>16qggL	.
.	.	.	.	16qff	.
.	.	.	.	16qeen	.
.	.	.	.	16qffJ)	.
24AL	.	4e-y 4cc	.	(>8fffL	.
24G	.	.	.	.	.
24A	.	.	.	.	.
24F	.	.	.	8eee-yJ)	.
24G	.	.	.	.	.
24AJ)	.	.	.	.	.
=99	=99	=99	=99	=99	=99
!LO:TX:i:t=dim.	!	!LO:TX:i:t=dim.	!	!LO:TX:i:t=dim.	!
(>24B-yL	.	4d 4b-y	.	(>8.dddL	.
24A	.	.	.	.	.
24B-y	.	.	.	.	.
24d	.	.	.	.	.
24c	.	.	.	.	.
.	.	.	.	32eee-y)	.
24B-yJ	.	.	.	.	.
.	.	.	.	32dddJ	.
24cL	.	4d 4a	.	(>8.cccL	.
24Bn	.	.	.	.	.
24c	.	.	.	.	.
24e-y	.	.	.	.	.
24d	.	.	.	.	.
.	.	.	.	32ddd	.
24cJ)	.	.	.	.	.
.	.	.	.	32cccJ)	.
=100	=100	=100	=100	=100	=100
(>24dL	.	4d 4dd	.	(>8.bb-yL	.
24B-y	.	.	.	.	.
24A	.	.	.	.	.
24G	.	.	.	.	.
24F	.	.	.	.	.
.	.	.	.	32ccc	.
24E-yJ	.	.	.	.	.
.	.	.	.	32bb-yJ)	.
24DL	.	4d 4cc	.	(>8aaL	.
24E-y	.	.	.	.	.
24D	.	.	.	.	.
24C	.	.	.	8dddJ)	.
24BB-y	.	.	.	.	.
24AAJ)	.	.	.	.	.
!!LO:LB
=101	=101	=101	=101	=101	=101
8GG	p	8g 8b-y	p	(>24ggL	.
.	.	.	.	24ee-y	.
.	.	.	.	24dd	.
8r	.	8r	.	24cc	.
.	.	.	.	24b-y	.
.	.	.	.	24aJ	.
4r	.	(<24gL	.	8g)	.
.	.	24e-y	.	.	.
.	.	24d	.	.	.
.	.	24c	.	8r	.
.	.	24B-y	.	.	.
.	.	24AJ	.	.	.
=102	=102	=102	=102	=102	=102
(>24GL	.	8G) 8g	.	2r	.
24E-y	.	.	.	.	.
24D	.	.	.	.	.
24C	.	8r	.	.	.
24BB-y	.	.	.	.	.
24AAJ	.	.	.	.	.
8GG)	.	4r	.	.	.
8r	.	.	.	.	.
=103	=103	=103	=103	=103	=103
!	!	!LO:TX:a:i:t=pizz.	!	!LO:TX:a:i:t=pizz.	!
2r	.	4G 4d	.	4b-y 4gg	p
!	!	!LO:TX:a:i:t=arco	!	!	!
.	.	(>(>4dd;	.	4r;;	.
=104	=104	=104	=104	=104	=104
!	!	!	!	!LO:TX:a:iB:t=Meno mosso	!
!LO:TX:iB:t=p	!	!	!	!LO:TX:a:i:t=arco	!
!LO:TX:i:t=pesante	!	!	!	!	!
8r	.	2dd))	p	(>(<4e 4cc	p
(<4DD	.	.	.	.	.
!	!	!	!	!LO:TX:i:t=dolce e	!
.	.	.	.	4e-y)) 4cc	.
8DD)	.	.	.	.	.
!!LO:LB
=105	=105	=105	=105	=105	=105
!	!	!	!	!LO:TX:i:t=sempre legato	!
*	*	*	*	*^	*
(<8DD	.	(>2dd	.	(<4d 4b	2r	.
4DD)	.	.	.	.	.	.
.	.	.	.	8enL 8cc	.	.
(<8DD	.	.	.	8dJ) 8b	.	.
=106	=106	=106	=106	=106	=106	=106
8DD)	.	4dd)	.	(<8cL 8a	2r	.
4DD	.	.	.	8B 8g	.	.
.	.	4dd	.	8c 8a	.	.
(<8DD	.	.	.	8AJ) 8f#y	.	.
=107	=107	=107	=107	=107	=107	=107
8DD)	.	4dd	<	(<4B 4g	2r	<
4DD	.	.	.	.	.	.
.	.	(>8ggL	>	8eL 8cc	.	>
(<8DD	.	8ddJ)	]	8dJ) 8b	.	]
=108	=108	=108	=108	=108	=108	=108
8DD)	.	(>2dd	.	4c 4a	4r	.
4DD	.	.	.	.	.	.
.	.	.	.	4cc	(<8eL	.
(<8DD	.	.	.	.	8e-yJ)	.
*	*	*	*	*v	*v	*
=109	=109	=109	=109	=109	=109
8DD)	.	2dd)	.	(>4d 4b	.
4DD	.	.	.	.	.
.	.	.	.	8enL 8cc	.
(<8DD	.	.	.	8dJ) 8b	.
=110	=110	=110	=110	=110	=110
8DD)	.	4dd	.	(>8cL 8a	.
4DD	.	.	.	8B 8g	.
.	.	4dd	.	8c 8a	.
8DD	.	.	.	8AJ) 8f#y	.
=111	=111	=111	=111	=111	=111
4GG	<	(>8ddL	<	4B 4g	<
.	.	8gg	.	.	.
4GG	.	8dd	.	4B 4g	.
.	[	8bJ)	[	.	[
!!LO:LB
=112	=112	=112	=112	=112	=112
(<8FFnL	<	(<4fn' 4a'	<	(<4d' 4b'	<
8EE	.	.	.	.	.
8FF	.	4f') 4a'	.	4d') 4b'	.
8DDJ)	.	.	.	.	[
=113	=113	=113	=113	=113	=113
4EE	[	(>(>2ee	[	(<8dL 8b	<
.	.	.	.	8e) 8cc	.
4EE	.	.	.	(<8d 8b	.
.	.	.	.	8cJ) 8a	[
=114	=114	=114	=114	=114	=114
!	!	!	!	!LO:TX:a:iB:t=ral.	!
2EE	>	8eeL)	.	8BL 8g#y	>
.	.	8ffn	>	(<8B 8d	.
.	.	8ee	.	8B 8e	.
.	.	8ddJ)	.	8BJ) 8fn	.
=115	=115	=115	=115	=115	=115
(<4AA	]	(>8ccL	]	(<4e 4a	]
.	.	8ee)	.	.	.
4BB)	.	(>8b	.	8gnL	.
.	.	8eeJ)	.	8eJ)	.
=116	=116	=116	=116	=116	=116
(>4C	.	(>8aL	.	(<8cL 8e	.
.	.	8cc	.	8e-y 8a	.
4D)	.	8b	.	8f#y	.
.	.	8aJ)	.	8cJ) 8f#y	.
=117	=117	=117	=117	=117	=117
8G	.	(<8gL	.	(<8BL 8d	.
*clefG2	*	*	*	*	*
(<4.g	.	8e	.	8c	.
.	.	8d	.	8B	.
.	.	8cJ)	.	8AJ)	.
=118	=118	=118	=118	=118	=118
4g)	.	4B	.	4G	.
4r	.	4r	.	4r	.
!!LO:LB
=119	=119	=119	=119	=119	=119
!	!	!	!	!LO:TX:a:i:t=a tempo	!
2r	.	8r	p	4dd~	p
.	.	(>16aL	.	.	.
.	.	16b	.	.	.
.	.	8ccT	.	4dd~	.
.	.	16b	.	.	.
.	.	16aJ)	.	.	.
=120	=120	=120	=120	=120	=120
8r	p	(>4b	.	(>8dd	.
(<8gL	.	.	.	8bb	.
8f#yJ	.	8ddL	.	8aa	.
(<16qgL	.	.	.	.	.
16qf#yJ))	.	.	.	.	.
8e	.	8cc#yJ)	.	8gg)	.
=121	=121	=121	=121	=121	=121
.	.	.	.	8qgg	.
(<4d	.	(>4dd	.	(>8ff#yL	.
.	.	.	.	8ee	.
4d)	.	4ccn)	.	8ff#y	.
.	.	.	.	8ddJ)	.
=122	=122	=122	=122	=122	=122
(<4e	.	8bL	.	(>4gg	.
.	.	(>16cc#y	.	.	.
.	.	16bJ)	.	.	.
4g)	.	8eeL	.	4dd)	.
.	.	(>16cc#y	.	.	.
.	.	16bJ)	.	.	.
=123	=123	=123	=123	=123	=123
(<4f#y	.	4dd~	.	8ff#yL	.
.	.	.	.	(>16cc#y	.
.	.	.	.	16bJ)	.
4f#y)	.	4dd~	.	8bL	.
.	.	.	.	8bJ	.
=124	=124	=124	=124	=124	=124
(<4g	.	(>8ddL	.	(>4ee	.
.	.	8bb	.	.	.
4a)	.	8aa	.	4cc#y)	.
.	.	8ggJ)	.	.	.
!!LO:LB
=125	=125	=125	=125	=125	=125
.	.	(>8qgg	.	.	.
(>4b	.	(>8ff#yL)	.	4dd	.
.	.	8ee	.	.	.
4cc)	.	8ff#y	.	4dd	.
.	.	8ddJ)	.	.	.
=126	=126	=126	=126	=126	=126
(>4b	.	(>4gg	.	8ddL	.
.	.	.	.	(>16ee	.
.	.	.	.	16ddJ)	.
4b-y)	.	4dd)	.	(>8eeL	.
.	.	.	.	8dddJ)	.
=127	=127	=127	=127	=127	=127
4a~	.	(>8eeL	.	(>8ccc#yL	.
.	.	8dd	.	8bb	.
4a~	.	8cc#y	.	8aa	.
.	.	8bJ)	.	8ggJ)	.
=128	=128	=128	=128	=128	=128
(>8a	.	(>8ddL	.	8ff#y	.
8ff#y	.	8aJ	.	4.aa	.
.	.	(<16qbL	.	.	.
.	.	16qaJ)	.	.	.
8ee	.	8gL)	.	.	.
8dd)	.	8f#yJ	.	.	.
=129	=129	=129	=129	=129	=129
(>8qdd	.	.	.	.	.
(>8cc#yL)	.	4g	.	(>8eeL	.
8b	.	.	.	16ff#y	.
.	.	.	.	16gg	.
8cc#y	.	4g	.	8ff#y	.
8aJ)	.	.	.	8eeJ)	.
=130	=130	=130	=130	=130	=130
(<4dd	.	(<8f#yL	.	(>8aaL	.
.	.	16g	.	16bb	.
.	.	16f#yJ	.	16aa	.
4a)	.	8eL	.	8gg	.
.	.	8dJ)	.	8ff#yJ)	.
!!LO:LB
=131	=131	=131	=131	=131	=131
*	*	*	*	*^	*
(<4g	<	(>4b	<	(>8eeL	2r	.
.	.	.	.	8dd	.	.
4g#y)	.	4dd)	.	8ee	.	.
.	[	.	[	8bbJ)	.	.
=132	=132	=132	=132	=132	=132	=132
2a	.	2dd 2ff#y	.	(>8aaL	2r	<
.	.	.	.	8ddd	.	.
.	.	.	.	8ccc#y	.	.
.	.	.	.	8bbJ)	.	[
=133	=133	=133	=133	=133	=133	=133
(<4a	>	(<4cc#y 4ee	>	(>8aa	2r	>
.	.	.	.	(>16qbbL	.	.
.	.	.	.	16qaaJ)	.	.
.	.	.	.	16ggL	.	.
.	.	.	.	16ff#y	.	.
4A)	.	4g) 4cc#y	.	8ee)	.	.
.	]	.	]	8aaJ	.	]
=134	=134	=134	=134	=134	=134	=134
8dL	.	8f#yL	.	8dd	2r	.
(<8dd	.	(<8b	.	4.d 4.dd	.	.
8cc#y	.	8a	.	.	.	.
8bJ)	.	8gJ)	.	.	.	.
=135	=135	=135	=135	=135	=135	=135
(<8a	.	(<8AL 8f#y	.	2aa	(<4a	.
(<16qbL	.	.	.	.	.	.
16qaJ)	.	.	.	.	.	.
16gL)	.	16e	.	.	.	.
16f#y	.	16dJ	.	.	.	.
(<8e	.	8gL	.	.	4cc#y)	.
8aJ)	.	8AJ) 8e	.	.	.	.
*	*	*	*	*v	*v	*
=136	=136	=136	=136	=136	=136
(>4d	.	8f#yL	.	(>8ddL	.
.	.	(>8gg	.	8ee	.
4e)	.	8ff#y	.	8dd	.
.	.	8eeJ)	.	8cc#yJ)	.
!!LO:LB
=137	=137	=137	=137	=137	=137
(>4f#y	.	(>8dd	.	(<8bL	.
.	.	(>16qeeL	.	.	.
.	.	16qddJ	.	.	.
.	.	16cc#yL)	.	8f#y)	.
.	.	16bJ	.	.	.
4F#y)	.	8a#yL)	.	8e 8cc#y	.
.	.	8ff#yJ	.	(<16f#y	.
.	.	.	.	16eJ)	.
=138	=138	=138	=138	=138	=138
4B~	.	4b	.	4d	.
4B~	.	(>8bbL	.	(<(>4b 4bb	.
.	.	8ggJ)	.	.	.
=139	=139	=139	=139	=139	=139
(>8B	.	(>8ff#yL	.	2b)) 2bb	.
8g	.	8ee	.	.	.
8f#y	.	8dd	.	.	.
8e)	.	8cc#yJ)	.	.	.
=140	=140	=140	=140	=140	=140
(>8qe	.	.	.	.	.
(>8dL)	.	4b~	.	4.ff#y	.
8c#y	.	.	.	.	.
8d	.	4b~	.	.	.
8BJ)	.	.	.	8ff#y	.
=141	=141	=141	=141	=141	=141
4e	<	(>8b	<	(>8ggL	<
.	.	8gg	.	8bb	.
(>4B	.	8ff#y	.	8aa	.
.	.	8ee)	.	8ggJ)	.
=142	=142	=142	=142	=142	=142
.	[	(>(>8qee	[	.	[
4B)	.	8dd#yL)	.	4ff#y	.
.	.	8cc#y	.	.	.
(<8bL	.	8dd#y	.	4ff#y	.
8aJ	.	8bJ)	.	.	.
=143	=143	=143	=143	=143	=143
8gL	.	(>4ee	.	(>8bL	.
8f#yJ	>	.	.	8dd	.
4e)	.	4b)	>	8cc#y	.
.	]	.	]	8ggJ)	.
!!LO:LB
=144	=144	=144	=144	=144	=144
(<4d	>	(>4b	>	(>8ff#yL	>
.	.	.	.	8dd	.
4e	.	4g)	.	8cc#y	.
.	.	.	.	16b	.
.	.	.	]	16cc#yJ)	]
=145	=145	=145	=145	=145	=145
4f#y)	]	4f#y	.	4f#y~	.
*clefF4	*	*	*	*	*
(>4F#y	.	(>(<4f#y 4ff#y	.	4f#y~	.
=146	=146	=146	=146	=146	=146
2F#y)	.	(>(<2f#y)) 2ff#y	.	(<8f#y	.
.	.	.	.	8dd	.
.	.	.	.	8cc#y	.
.	.	.	.	8b)	.
=147	=147	=147	=147	=147	=147
.	.	.	.	(<8qb	.
4F#y~	.	(<(>2f#y)) 2ff#y	.	(<8aL)	.
.	.	.	.	8g#y	.
4F#y~	.	.	.	8a	.
.	.	.	.	8f#yJ)	.
=148	=148	=148	=148	=148	=148
(>8F#y	.	(<(>2f#y)) 2ff#y	.	(<4b	.
8d	.	.	.	.	.
8c#y	.	.	.	4f#y)	.
8B)	.	.	.	.	.
=149	=149	=149	=149	=149	=149
(>8qB	.	.	.	.	.
(>8AL)	.	4f#y)) 4ff#y	.	(<4cc#y	.
8G#y	.	.	.	.	.
8A	.	(>4cc#y	.	4f#y)	.
8F#yJ)	.	.	.	.	.
=150	=150	=150	=150	=150	=150
4B	.	8ddL)	.	(<8f#yL	.
.	.	(>8dd	.	8b	.
(>8F#yL	.	8cc#y	.	8a	.
8G#yJ)	.	8bJ)	.	8g#yJ)	.
!!LO:LB
=151	=151	=151	=151	=151	=151
(>8AL	<	(>8cc#yL	<	4f#y	<
16B	.	16dd	.	.	.
16c#yJ	.	16cc#yJ	.	.	.
8dL	.	8bL	.	4f#y	.
8d#yJ)	.	8aJ)	[	.	.
=152	=152	=152	=152	=152	=152
(>8eL	[	(>8g#yL	.	4e 4ee	[
8f#y	.	8dd	.	.	.
8e	.	8cc#y	.	4e 4ee	.
8dnJ)	.	8bJ)	.	.	.
=153	=153	=153	=153	=153	=153
4.c#y	.	4a	.	2ee	.
.	.	4a	.	.	.
8c#y	.	.	.	.	.
=154	=154	=154	=154	=154	=154
(>4d	.	(>8aL	.	2a 2aa	.
.	.	8ff#y	.	.	.
8c#yL	.	8ee	.	.	.
8BJ)	.	8ddJ)	.	.	.
!!LO:LB
=155	=155	=155	=155	=155	=155
.	.	(>8qdd	.	.	.
4A	.	(>8cc#yL)	.	(>4a 4aa	.
.	.	8b	.	.	.
4A	.	8cc#y	.	4a) 4ee	.
.	.	8aJ)	.	.	.
=156	=156	=156	=156	=156	=156
(>8dL	<	(<4dd	<	(>8ff#yL	<
16e	.	.	.	16gg	.
16dJ	.	.	.	16ff#yJ	.
8c#yL	.	4a)	.	8eeL	.
8BJ)	.	.	.	8ddJ)	.
=157	=157	=157	=157	=157	=157
4A	[	4a 4aa	[	(>8cc#yL	[
.	.	.	.	8ee	.
(>8F#yL	.	4a 4aa	.	8dd	.
8EJ)	.	.	.	8cc#yJ)	.
=158	=158	=158	=158	=158	=158
(>4D	.	(<4fn 4a	.	(>8bL	.
.	.	.	.	8ddJ	.
4E)	.	8eL 8g#y	.	8cc#yL	.
.	.	8dJ)	.	16b	.
.	.	.	.	16cc#yJ)	.
=159	=159	=159	=159	=159	=159
(<4A	.	(<(<4c#y	.	(<4a	.
4AA)	.	4A))	.	4a) 4aa	.
!!LO:LB
=160	=160	=160	=160	=160	=160
*	*	*	*	*^	*
(<2AA	.	(<(<2A	.	(<(>(<(>2a 2aa	2r	.
=161	=161	=161	=161	=161	=161	=161
4AA~)	.	(<8AL))	.	(<(>2a)))) 2aa	2r	.
.	.	8fnJ	.	.	.	.
4AA~	.	16eL	.	.	.	.
.	.	16d	.	.	.	.
.	.	8eJ)	.	.	.	.
=162	=162	=162	=162	=162	=162	=162
(<8AA	.	(<4A	.	2a)) 2aa	2r	.
8Fn	.	.	.	.	.	.
8E	.	8cL	.	.	.	.
8D)	.	16d	.	.	.	.
.	.	16BJ)	.	.	.	.
=163	=163	=163	=163	=163	=163	=163
(<8qD	.	.	.	.	.	.
(<8CL)	.	4A~	.	(<(>4a 4ee	2r	.
8BB	.	.	.	.	.	.
8C	.	4A~	.	4a)) 4aa	.	.
8AAJ)	.	.	.	.	.	.
=164	=164	=164	=164	=164	=164	=164
(<4D	.	(<8A	.	4a 4aa	2r	.
.	.	8fn	.	.	.	.
4AA)	.	8e	.	(>8aL 8gg	.	.
.	.	8d)	.	8aJ) 8ffn	.	.
=165	=165	=165	=165	=165	=165	=165
.	.	(<(<8qd	.	.	.	.
4AA	.	8c#yL)	.	8eeL	(<4a	.
.	.	8B	.	16ffn	.	.
.	.	.	.	16ggJ	.	.
(>8AL	.	8c#y	.	16ffL	8a)	.
.	.	.	.	16ee	.	.
8GJ)	.	8AJ)	.	16dd	8r	.
.	.	.	.	16cc#yJ	.	.
!!LO:LB
=166	=166	=166	=166	=166	=166	=166
*^	*	*^	*	*	*	*
(>8FnL	2r	.	(<4d 4a	2r	.	(>8dd	2r	.
.	.	.	.	.	.	(<16qeeL	.	.
.	.	.	.	.	.	16qddJ	.	.
8E	.	.	.	.	.	16ccL)	.	.
.	.	.	.	.	.	16bJ	.	.
8F	.	.	4A)	.	.	8aL	.	.
8DJ)	.	.	.	.	.	16dd)	.	.
.	.	.	.	.	.	16ffnJ	.	.
=167	=167	=167	=167	=167	=167	=167	=167	=167
(>8CL	2r	.	4A 4a	4r	.	(>8eeL	2r	.
16D	.	.	.	.	.	16ffn	.	.
16EJ)	.	.	.	.	.	16eeJ	.	.
(>8FnL	.	.	(>8aL	4d	.	16ddL	.	.
.	.	.	.	.	.	16cc	.	.
8F#yJ)	.	.	8ddJ)	.	.	16b	.	.
.	.	.	.	.	.	16aJ)	.	.
=168	=168	=168	=168	=168	=168	=168	=168	=168
4G	2r	.	4g	2r	.	4g~	2r	.
(<(>4GG 4G	.	.	(>(<(<4g 4gg	.	.	4g~	.	.
=169	=169	=169	=169	=169	=169	=169	=169	=169
(<(>2GG)) 2G	2r	.	(>2g))) 2gg	2r	.	(>8g	2r	.
.	.	.	.	.	.	8ee	.	.
.	.	.	.	.	.	8dd	.	.
.	.	.	.	.	.	8cc)	.	.
=170	=170	=170	=170	=170	=170	=170	=170	=170
.	.	.	.	.	.	(<8qcc	.	.
4GG)) 4G	2r	.	(>(<2g) 2gg	2r	.	(<8bL)	2r	.
.	.	.	.	.	.	8a	.	.
4GG~ 4G~	.	.	.	.	.	8b	.	.
.	.	.	.	.	.	8gJ)	.	.
=171	=171	=171	=171	=171	=171	=171	=171	=171
(>8G	2GG	.	2g)) 2gg	2r	.	(>4cc	2r	.
8e	.	.	.	.	.	.	.	.
8d	.	.	.	.	.	4g)	.	.
8c)	.	.	.	.	.	.	.	.
=172	=172	=172	=172	=172	=172	=172	=172	=172
(<8qc	.	.	.	.	.	.	.	.
(<8BL)	2GG	.	4g~	2r	.	(>4ffn	2b	.
8A	.	.	.	.	.	.	.	.
8B	.	.	4g~	.	.	8ggL	.	.
8GJ)	.	.	.	.	.	8ffJ)	.	.
*	*	*	*v	*v	*	*	*	*
!!LO:LB
=173	=173	=173	=173	=173	=173	=173	=173
(>4c	2GG	.	(>8gL	.	8ee	8cc	.
.	.	.	8ee	.	4.g 4.gg	8r	.
4G)	.	.	8dd	.	.	4r	.
.	.	.	8ccJ)	.	.	.	.
=174	=174	=174	=174	=174	=174	=174	=174
.	.	.	(<(<8qcc	.	.	.	.
4GG 4G	2r	.	8bL)	.	4g 4gg	4r	.
.	.	.	8a	.	.	.	.
(<8GGL	.	.	8b	.	(>16ddL	8dL	.
.	.	.	.	.	16cc	.	.
8FFnJ)	.	.	8gJ)	.	8bJ)	8dJ	.
=175	=175	=175	=175	=175	=175	=175	=175
(<4EE	2r	.	(<4cc	.	(>4g	4c	.
4DD)	.	.	4g)	.	8bL	4d	.
.	.	.	.	.	16cc	.	.
.	.	.	.	.	16bJ)	.	.
=176	=176	=176	=176	=176	=176	=176	=176
(<4CC	2r	.	(>4c 4e	.	(<8aL	2r	.
.	.	.	.	.	8cc	.	.
4DD)	.	.	4c) 4f#y	.	8b	.	.
.	.	.	.	.	8aJ)	.	.
=177	=177	=177	=177	=177	=177	=177	=177
8EEL	2r	<	8eL	<	8gL	2r	<
16FF#y	.	.	(<16f#y	.	(<16f#y	.	.
16AAJ	.	.	16aJ)	.	16aJ)	.	.
(<8qAA	.	.	.	.	.	.	.
.	.	.	(<8qa	.	.	.	.
.	.	.	.	.	(<8qa	.	.
(<8GGL)	.	.	(<8gL)	.	(<8gL)	.	.
8EEJ)	.	[	8eJ)	[	8eJ)	.	[
=178	=178	=178	=178	=178	=178	=178	=178
4DD	2r	f	4d	f	4d	2r	f
4DD	.	.	4B 4g	.	4d 4b	.	.
=179	=179	=179	=179	=179	=179	=179	=179
4DD	2r	>	(>8.cL 8.a	>	8f#yL 8dd	2r	>
.	.	.	.	.	(<16e 16cc	.	.
.	.	.	16f#yJ	.	16d 16b	.	.
4DD	.	.	4d) 4dd	.	8c) 8a	.	.
.	.	]	.	]	8cJ 8f#y	.	]
*v	*v	*	*	*	*v	*v	*
!!LO:LB
=180	=180	=180	=180	=180	=180
4GG	pp	4G 4d	pp	4B 4g	pp
(<4EE 4GG	.	(<4G	.	(<4c	.
=181	=181	=181	=181	=181	=181
4DD) 4GG	<	(<2G)	<	4B)	<
4CC 4GG	[	.	.	(<4c 4e	[
=182	=182	=182	=182	=182	=182
2DD	.	2G)	[	2B) 2d	.
=183	=183	=183	=183	=183	=183
!	!	!	!	!LO:TX:a:iB:t=ral.	!
2DD	>	(<4G	>	(>(<4c 4e	>
.	.	4A)	]	4c)) 4f#y	]
=184	=184	=184	=184	=184	=184
2GG	]	2G	.	2B 2g	.
=185	=185	=185	=185	=185	=185
(>2G	>	(<2g	>	(<2g	>
=186	=186	=186	=186	=186	=186
8G)	]	8g;)	]	8g;)	]
8r	.	8r	.	8r	.
4r	.	4r	.	4r	.
=187	=187	=187	=187	=187	=187
!	!	!	!	!LO:TX:a:iB:t=a tempo	!
2r	.	2r	.	4dd~	p
.	.	.	.	4dd~	.
=188	=188	=188	=188	=188	=188
2r	.	2r	.	(>8dd	.
.	.	.	.	8bb-y	.
.	.	.	.	8aa	.
.	.	.	.	8gg)	.
=189	=189	=189	=189	=189	=189
.	.	.	p	(>8qgg	.
2r	.	4d~	.	(>8ff#yL)	.
.	.	.	.	8een	.
.	.	4d~	.	8ff#y	.
.	.	.	.	8ddJ)	.
!!LO:LB
=190	=190	=190	=190	=190	=190
2r	.	(<8d	.	(>4gg	.
.	.	8b-y	.	.	.
.	.	8a	.	4dd)	.
.	.	8g)	.	.	.
=191	=191	=191	=191	=191	=191
.	p	(<8qg	.	.	.
4D~	.	(<8f#yL)	.	(>4.cc	.
.	.	8en	.	.	.
4D~	.	8f#y	.	.	.
.	.	8dJ)	.	16ddL	.
.	.	.	.	16ccJ)	.
=192	=192	=192	=192	=192	=192
(>8D	.	(<4g	.	(>4b-y	.
8B-y	.	.	.	.	.
8A	.	4d)	.	4dd)	.
8G)	.	.	.	.	.
=193	=193	=193	=193	=193	=193
(>8qG	.	.	.	.	.
(>8F#yL)	.	(<4.c	.	(<4.d 4.a	.
8En	.	.	.	.	.
8F#y	.	.	.	.	.
8DJ)	.	16dL	.	16b-yL	.
.	.	16cJ)	.	16aJ)	.
=194	=194	=194	=194	=194	=194
(>4G	<	8B-yL	<	(<8gL	<
.	.	(<8B-y	.	8d	.
4D)	.	8A	.	8c	.
.	[	8GJ)	[	8B-yJ)	[
=195	=195	=195	=195	=195	=195
(<4.C	>	(<4G	>	(<8AL	>
.	.	.	.	8e-yJ	.
.	.	4A)	.	4d)	.
16DL	.	.	.	.	.
16CJ)	]	.	]	.	]
=196	=196	=196	=196	=196	=196
8BB-y	.	8G	.	8d	.
8r	.	8r	.	8r	.
4r	.	4r	.	4r	.
=197	=197	=197	=197	=197	=197
(<2C	.	(<(>2A 2e-y	p	4r	p
!	!	!	!	!LO:TX:a:iB:t=ral. ad lib.	!
.	.	.	.	(>4gg	.
=198	=198	=198	=198	=198	=198
2C)	.	2A)) 2e-y	.	8.ggL)	.
.	.	.	.	(>16ee-yJ	.
.	.	.	.	16ddL	.
.	.	.	.	16cc	.
.	.	.	.	16b-y	.
.	.	.	.	16aJ)	.
!!LO:LB
=199	=199	=199	=199	=199	=199
(>2D	.	(<(>2B-y 2d	.	(>16ddL	.
.	.	.	.	16bb-y	.
.	.	.	.	16aa	.
.	.	.	.	16ggJ)	.
.	.	.	.	(>16ff#yL	.
.	.	.	.	16aaJ	.
.	.	.	.	(>8qaa	.
.	.	.	.	16ggL))	.
.	.	.	.	16ee-yJ	.
=200	=200	=200	=200	=200	=200
2D)	.	(<2d))	.	(>8ddL	.
.	.	.	.	16b-y	.
.	.	.	.	16aJ)	.
.	.	.	.	(<8g	.
.	.	.	.	(<16qaL	.
.	.	.	.	16qgJ	.
.	.	.	.	16fL))	.
.	.	.	.	16e-yJ	.
=201	=201	=201	=201	=201	=201
(>4.D	.	4d)	.	(<4d	.
.	.	4A 4d	.	4f#y)	.
8c)	.	.	.	.	.
=202	=202	=202	=202	=202	=202
!	!	!	!	!LO:TX:a:iB:t=a tempo	!
8G	.	8B-y 8d	.	8g	pp
8r	.	8r	.	(>8bb-yL	.
4r	.	4r	.	8aa	.
.	.	.	.	8ggJ)	.
=203	=203	=203	=203	=203	=203
2r	.	8r	pp	(>2dd	.
.	.	(<8b-yL	.	.	.
.	.	8a	.	.	.
.	.	8gJ)	.	.	.
=204	=204	=204	=204	=204	=204
!	!	!	!	!LO:TX:a:iB:t=ral.	!
!LO:TX:i:t=dim.	!	!LO:TX:i:t=dim.	!	!LO:TX:i:t=dim.	!
8r	pp	(<2d	.	(>2dd)	.
(>8B-yL	.	.	.	.	.
8A	.	.	.	.	.
8GJ	.	.	.	.	.
=205	=205	=205	=205	=205	=205
8DL)	.	2d)	.	2dd)	.
(<8BB-y	.	.	.	.	.
8AA	.	.	.	.	.
8GGJ)	.	.	.	.	.
=206	=206	=206	=206	=206	=206
4.G;	.	4.d;	.	4.gg;	.
8r	.	8r	.	8r	.
==	==	==	==	==	==
*-	*-	*-	*-	*-	*-
!!!RDF**kern: > = above
!!!RDF**kern: < = below
